X: 7044
T: Chioula's Air
R: hornpipe
M: 4/4
K: Gmajor
D GA|B2Bd cB AG|GA AF DD EF|FG GF FG GB|GA AF D D GA|
B2 Bg ed cB|Bc cB AA GF|FG GB EF FE||DE GF||E8 -|
E4- ED GA|AB Bd cB AG|GA AF D2 z2|e2 ed c2 cB|AG FG A D GA|
AB de gf dB|de fd eB ef|fg gb ef fe||de gf||e8|
|:gB gf dA d2|ce fg ag fd|gB gf dA d2|ba gb ag fd:|
g4-g3 a/g/|f3 g/f/ d4|B8||

